X: 20792
Q: "Lively."
M: 6/8
L: 1/8
K: C
c2c {d}cBA | G2G G2c |\
d2f e2c | {c}BAB c2c |\
d2f e2c | {c}BAB c2e/c/ |\
c2c edc | g2g Hg2e/c/ |\


